X:5
T:Willie's Fling #2
R:fling
Z:id:hn-hf-5
M:C|
K:D
AD~D2 FD~D2|AD~D2 dedc|AD~D2 FD~D2|DEFD G2FG:|
|:ABAG ~F3G|AddB =cAGA|~A2GA FGEF|1 DEFD G2 (3EFG:|2 DEFD G2d^c||

